public/waste/img/recycle.svg

<svg id="Layer_1" data-name="Layer 1" xmlns="http://www.w3.org/2000/svg" viewBox="0 0 124.63014 124.63014"><defs><style>.cls-1{fill:#93c01f;}</style></defs><path class="cls-1" d="M53.11406,110.86593l-17.81291.25329c-17.39671.2452-27.66322-15.5171-18.52964-31.33716l2.40969-4.16528-7.10709-4.1032L35.93473,57.73817V85.28971l-7.1063-4.10319-2.40953,4.1828c-4.77049,8.26187-.10814,14.74332,8.75085,14.61765l17.81276-.2525.13155,11.13146ZM89.62244,60.569,65.76166,46.79367l7.10708-4.10319-2.41047-4.1652c-4.7609-8.24655-12.70669-7.499-17.02812.23788L44.74264,54.31539l-9.73494-5.4135,8.68751-15.55215C52.21988,18.08813,70.98906,17.1464,80.10566,32.938l2.41048,4.1821,7.1063-4.10249V60.569Zm-29.332,44.85127,23.86-13.77612v8.18815h4.85945c9.21672,0,12.98269-6.999,8.29834-14.85507L88.18364,69.67767l9.55968-5.71858,9.12478,15.29949c9.14,15.32809.00864,31.74959-17.85818,31.74959H84.15047v8.18824l-23.86-13.77613Z"/></svg>

<svg data-name="Layer 1" xmlns="http://www.w3.org/2000/svg" viewBox="0 0 124.63 124.63"><path d="M53.114 110.866l-17.813.253c-17.397.245-27.663-15.517-18.53-31.337l2.41-4.165-7.107-4.103 23.86-13.776V85.29l-7.106-4.103-2.41 4.182c-4.77 8.262-.107 14.744 8.752 14.618l17.813-.253.131 11.132zm36.508-50.297l-23.86-13.775 7.107-4.104-2.41-4.165c-4.762-8.246-12.707-7.499-17.029.238l-8.687 15.552-9.735-5.413 8.687-15.552c8.525-15.262 27.294-16.204 36.41-.412l2.411 4.182 7.106-4.102v27.551zM60.29 105.42l23.86-13.776v8.188h4.86c9.217 0 12.983-6.999 8.298-14.855l-9.124-15.3 9.56-5.718 9.124 15.3c9.14 15.328.009 31.75-17.858 31.75h-4.86v8.187L60.29 105.42z" fill="#93c01f"/></svg>
